X: 1
T: Oer the Muir to Ketty
O: trad Scotland
M: C|
L: 1/8
R: Scots Measure
B: McGlashan Collection of Scots Measures (178?)
Z: AK/Fiddlers Companion
K: D
FE "A"\
| D3F A>BAF | A2d2d3A \
| Bcde f2 ed | e2E4 {G}FE \
| D3F A>BAF | A2 de d3A |
| BcdB edce | d2 D4 :| \
de "B1"\
| fedc BAGF | B2d2d3F \
| G3A BAGF | E2 e4 ag |
| fedf edce | dcBA BAGF \
| EFGE AGFE | D2 d4 |] \
de "B2"\
| fedc BAGF | B2de d3F |
| GFGA BAGF | E2e4 ag \
| fedf edce | dcBA BAGF \
| E/D/E/F/ GB AGFE | D2 d4 |]
%%center Book48/Oer_the_Muir_to_Ketty_Gow-D-32-4.abc

%%sep 1 1 500
%%sep 1 1 500

